Sources/FrostedUI/Resources/Icons.xcassets/eyeSlashed16.imageset/eye-slashed-16.svg

<svg width="16" height="16" viewBox="0 0 16 16" fill="none" xmlns="http://www.w3.org/2000/svg" data-fui-icon="true">
  <path
    d="M13.7196 1.21973C14.0125 0.926949 14.4873 0.926914 14.7802 1.21973C15.073 1.51259 15.0729 1.98737 14.7802 2.28027L11.3075 5.75195C11.7439 6.39273 11.9999 7.1663 11.9999 8C11.9998 10.2091 10.2089 11.9999 7.99988 12C7.16614 12 6.39164 11.745 5.75085 11.3086L2.28015 14.7803C1.98724 15.073 1.51244 15.0731 1.2196 14.7803C0.926813 14.4874 0.926892 14.0126 1.2196 13.7197L4.69031 10.248C4.25435 9.60746 3.9999 8.83327 3.99988 8C3.99993 5.79098 5.79087 4.00011 7.99988 4C8.83306 4.00002 9.60641 4.25555 10.2469 4.69141L13.7196 1.21973ZM13.4598 5.03125C13.7996 4.79439 14.2679 4.87798 14.5048 5.21777C15.2621 6.30437 15.7342 7.264 15.8837 7.58301C16.0026 7.83721 16.0134 8.13895 15.8846 8.41406C15.6878 8.83468 14.8958 10.443 13.5985 11.957C12.3173 13.4522 10.418 15 7.99988 15C7.08418 15 6.23929 14.7763 5.47742 14.4189C5.10257 14.243 4.94129 13.7958 5.11707 13.4209C5.29311 13.0463 5.73933 12.8848 6.11414 13.0605C6.70604 13.3382 7.33446 13.5 7.99988 13.5C9.75453 13.5 11.2736 12.3648 12.4598 10.9805C13.4626 9.8101 14.1349 8.56203 14.4159 7.99805C14.2197 7.60451 13.8332 6.87704 13.2743 6.0752C13.0376 5.7356 13.1206 5.26825 13.4598 5.03125ZM7.99988 1C8.91562 1.00001 9.76043 1.22367 10.5223 1.58105C10.8973 1.75698 11.0586 2.20411 10.8827 2.5791C10.7066 2.95362 10.2604 3.11515 9.88562 2.93945C9.29371 2.66178 8.6653 2.50001 7.99988 2.5C6.24522 2.50009 4.72611 3.63513 3.53992 5.01953C2.53737 6.18968 1.86393 7.43689 1.58289 8.00098C1.77888 8.39426 2.16602 9.12219 2.72546 9.9248C2.96233 10.2646 2.87875 10.7319 2.53894 10.9688C2.19916 11.2053 1.73178 11.1219 1.495 10.7822C0.737637 9.69564 0.265532 8.73603 0.116089 8.41699C-0.00279629 8.1629 -0.0143999 7.86096 0.114136 7.58594L0.371948 7.06836C0.738378 6.36795 1.42702 5.17891 2.40027 4.04297C3.68144 2.54772 5.5816 1.00009 7.99988 1ZM6.8446 10.2148C7.19036 10.3956 7.58273 10.5 7.99988 10.5C9.3805 10.4999 10.4998 9.38062 10.4999 8C10.4999 7.58279 10.3955 7.19052 10.2147 6.84473L6.8446 10.2148ZM7.99988 5.5C6.6193 5.50011 5.49993 6.61941 5.49988 8C5.4999 8.4167 5.60372 8.8088 5.78406 9.1543L9.15417 5.78418C8.80869 5.60385 8.41658 5.50002 7.99988 5.5Z"
    fill="currentColor"
  />
</svg>

<svg xmlns="http://www.w3.org/2000/svg" width="16" height="16" fill="none" data-fui-icon="true" viewBox="0 0 16 16"><path fill="currentColor" d="M13.72 1.22a.75.75 0 0 1 1.06 1.06l-3.472 3.472a4 4 0 0 1-5.557 5.557L2.28 14.78a.75.75 0 0 1-1.061-1.06l3.47-3.472a4 4 0 0 1 5.557-5.557zm-.26 3.811a.75.75 0 0 1 1.045.187 17 17 0 0 1 1.379 2.365.98.98 0 0 1 0 .831 16.6 16.6 0 0 1-2.286 3.543C12.319 13.452 10.419 15 8 15c-.916 0-1.76-.224-2.523-.581a.75.75 0 0 1 .637-1.359c.592.278 1.22.44 1.886.44 1.755 0 3.274-1.135 4.46-2.52 1.003-1.17 1.675-2.418 1.956-2.982a16 16 0 0 0-1.142-1.923.75.75 0 0 1 .186-1.044M8 1c.916 0 1.76.224 2.522.581a.75.75 0 0 1-.636 1.358A4.4 4.4 0 0 0 8 2.5c-1.755 0-3.274 1.135-4.46 2.52C2.537 6.19 1.864 7.437 1.583 8c.196.393.583 1.121 1.142 1.924a.75.75 0 1 1-1.23.857A17 17 0 0 1 .116 8.417a.98.98 0 0 1-.002-.831l.258-.518c.366-.7 1.055-1.89 2.028-3.025C3.681 2.548 5.582 1 8 1m-1.155 9.215a2.5 2.5 0 0 0 3.37-3.37zM8 5.5a2.5 2.5 0 0 0-2.216 3.654l3.37-3.37A2.5 2.5 0 0 0 8 5.5"/></svg>
